packages/match-logos/mono/svg/seniorhomes.svg

<svg fill="none" height="32" viewBox="0 0 200 32" width="200" xmlns="http://www.w3.org/2000/svg" xmlns:xlink="http://www.w3.org/1999/xlink"><clipPath id="a"><path d="m0 0h200v31.6206h-200z"/></clipPath><g clip-path="url(#a)" fill="#1f304c"><path d="m17.5494 7.11462c-3.2411-3.63636-7.1146-5.21739-6.9565-4.82213.2371.94861-2.76683 6.71936-2.76683 6.71936-7.98419 11.38345 7.11463 21.66005 8.37943 22.52965-.7114-1.502-7.82607-16.8379 1.3439-24.42688z" opacity=".75"/><path d="m16.2055 31.6205s-10.03949-20.079 4.8222-26.71934c0 0 6.245-3.87352 6.5612-4.90118867.3953-1.02767133 15.0198 20.86952867-11.3834 31.62052867z" opacity=".5"/><path d="m5.92889 12.5692c-3.32015-.8696-6.166004-.5534-5.92884981-.3953.55335981.6324.71146281 6.087.71146281 6.087-1.422925 12.2529 15.494097 13.3597 15.494097 13.3597v-.0791c-1.0277-.6324-13.35971-9.0119-10.27671-18.9723zm41.73911 12.2529c0 1.6601-.7114 3.083-2.0553 4.1898-1.2648 1.1067-2.7668 1.66-4.4269 1.66-.8696 0-1.7391-.2371-2.6877-.6324-.7905-.3952-1.6601-.8695-2.4506-1.2648l-.2372-3.3992h.5534c.079 1.2648.5533 2.2925 1.4229 3.0039.8696.7115 1.8972 1.1068 3.1621 1.1068 1.1067 0 1.9762-.4743 2.6087-1.3439.5533-.7905.8695-1.7391.8695-2.9249 0-2.0553-.7905-3.7945-2.2925-5.3755-1.4229-1.1858-2.7668-2.4506-4.1897-3.6364-1.502-1.5019-2.2925-3.162-2.2925-5.1383 0-1.66009.7115-3.00396 2.0554-4.18973 1.3438-1.02767 2.7667-1.58103 4.4268-1.58103 1.7392 0 3.004.39526 3.9526 1.26482l.3162 4.03164h-.5534c-.079-1.50199-.3162-2.45061-.6324-3.00397-.4743-.79051-1.3438-1.18577-2.7668-1.18577-1.1067 0-1.9762.47431-2.6087 1.34387-.6324.79052-.8695 1.73913-.8695 2.92487 0 1.7392.7905 3.3992 2.2925 4.8222 1.4229 1.1857 2.8458 2.4506 4.2687 3.6363 1.3439 1.7392 2.1344 3.6364 2.1344 5.6917zm15.4941-5.5336h-10.6719c0 .0791.079.8696.1581 2.3716.1581 1.9763.4743 3.6363 1.1067 4.9012.8695 1.8181 2.1344 2.7668 3.7945 2.7668.7905 0 1.581-.2372 2.3715-.7115s1.4229-1.1067 1.8972-1.8972l.7905.3952c-1.4229 2.2925-3.5573 3.3992-6.5612 3.3992-2.2925 0-4.0316-1.0276-5.2965-3.0039-1.1067-1.7392-1.66-3.7945-1.66-6.166 0-2.6087.6324-4.9012 1.8972-6.8775 1.4229-2.2925 3.3992-3.3992 5.9288-3.3992 1.9763 0 3.5574.9486 4.7431 2.8458.9486 1.423 1.502 3.3202 1.502 5.3755zm-2.2134-1.1857c0-.3162-.1581-1.0277-.3953-2.2135-.5534-2.6087-1.6601-3.9525-3.3992-3.9525s-3.083 1.4229-3.9526 4.2687c-.1581.4743-.3162 1.1068-.5533 1.8973zm17.9446 12.2529c-1.502-.079-2.3715-.079-2.5296-.079-.2372 0-1.1067 0-2.8459.079v-.3952c.7905 0 1.1067-.2372 1.1067-.8696v-12.8063c0-1.1067-.2371-1.9763-.7114-2.7668-.5534-.8696-1.3439-1.3439-2.3716-1.3439-.9486 0-1.7391.3953-2.3715 1.1067-.6324.7905-.8696 1.5811-.7905 2.5297.079.7905.1581 1.502.1581 2.2134v11.1463c0 .5533.3162.8695 1.0277.8695v.3953c-1.6601-.0791-2.5297-.0791-2.6878-.0791-.2371 0-1.1067 0-2.6877.0791v-.3953c.7114 0 1.1067-.2371 1.1067-.8695v-15.8103c0-.3162-.0791-.4743-.2372-.6324-.079 0-.2371-.0791-.6324-.2372-.2371-.079-.3952-.1581-.3952-.2371 0-.0791.1581-.1581.3952-.2372.6324-.079 1.9763-.3952 4.1897-.9486 0 .6324-.079 1.502-.1581 2.6877.1581-.6324.5534-1.2648 1.1858-1.7391.8696-.7115 1.9763-1.0277 3.2411-1.0277 1.3439 0 2.5297.3953 3.4783 1.1858 1.0276.9486 1.581 2.1344 1.581 3.6364v13.3597c0 .5533.3162.8695 1.0277.8695zm6.4032 0c-1.6601-.079-2.5297-.079-2.7668-.079-.1581 0-1.0277 0-2.6878.079v-.3952c.7906 0 1.1068-.3162 1.1068-.8696v-15.7312c0-.3162-.0791-.5534-.2372-.6324-.079 0-.3162-.0791-.7115-.2372-.2371-.079-.3952-.1581-.3952-.2371 0-.0791.1581-.1581.3952-.2372.7115-.079 2.0554-.3952 4.1898-.9486v18.0237c0 .5534.3162.8696 1.0276.8696zm16.1265-9.8814c0 3.1621-.474 5.6127-1.502 7.3518-.7115 1.1858-1.7391 1.9763-2.9249 2.3715-1.1858.3953-2.4506.6324-3.6364.6324-2.5296 0-4.2687-1.1857-5.2964-3.5573-.6324-1.581-1.0277-3.8735-1.0277-6.7984 0-2.5296.2372-4.4269.6324-5.5336.6324-1.7391 1.9763-3.0039 3.9526-3.6364 1.3439-.4743 2.4506-.6324 3.5573-.6324 4.1897-.1581 6.2451 3.1621 6.2451 9.8024zm-3.083.9486v-.5533c0-1.423-.1581-2.7668-.3953-3.8736-.3162-1.3438-.7115-2.5296-1.3439-3.4782-.8695-1.2648-1.8181-1.8972-3.0039-1.8972-.3953 0-.8696.079-1.2648.2371-1.3439.5534-1.9763 3.2411-1.9763 7.9842 0 6.5613 1.502 9.8024 4.4269 9.8024.4743 0 .9486-.0791 1.3438-.2372 1.502-.3952 2.2135-3.083 2.2135-7.9842zm16.047-8.5375c0 .3162-.079.5533-.316.7905-.237.2371-.474.3162-.711.3162-.475 0-.791-.3162-1.028-.8696-.158-.3162-.237-.5533-.316-.6324-.158-.2371-.316-.3162-.554-.3162-1.185-.079-2.292.7905-3.241 2.6087-.948 1.6601-1.343 3.083-1.185 4.2688.079.7114.158 1.4229.158 2.1344v7.9842c0 .5533.316.8695 1.027.8695v.3953c-1.66-.0791-2.529-.0791-2.766-.0791-.238 0-1.107 0-2.688.0791v-.3953c.711 0 1.107-.2371 1.107-.8695v-15.8103c0-.3162-.079-.5534-.238-.6324l-.711-.2372c-.237-.079-.316-.1581-.316-.2371 0-.0791.158-.1581.395-.2372.632-.079 2.055-.3952 4.19-.9486v2.2925c0 .5533-.079 1.2648-.158 2.1344 1.264-3.1621 2.845-4.7431 4.743-4.7431.632 0 1.185.2371 1.818.6324.553.4743.79.9486.79 1.502zm17.708-6.95655c-.316 0-.633.07905-.949.31621-.316.23715-.474.47431-.474.79051v21.66013c0 .3162.158.5533.395.7905.316.2371.554.3162.87.3162v.3952c-1.739-.079-2.688-.079-2.925-.079s-1.186 0-3.004.079v-.3952c.316 0 .632-.0791.949-.3162.316-.2372.474-.4743.474-.7905v-8.2214c0-.6324.079-1.581.158-2.6877h-9.407c.079 1.0276.158 1.8972.158 2.6877v8.2214c0 .3162.158.5533.395.7905.316.2371.554.3162.87.3162v.3952l-2.846-.079c-.237 0-1.186 0-3.004.079v-.3952c.316 0 .632-.0791.949-.3162.316-.2372.474-.4743.474-.7905v-21.66013c0-.3162-.158-.55336-.395-.79051-.317-.23716-.554-.31621-.87-.31621v-.39526l2.925.07906c.237 0 1.186 0 2.925-.07906v.39526c-.316 0-.633.07905-.949.31621-.316.23715-.474.47431-.474.79051v7.50993c0 .7114-.079 1.581-.158 2.5296h9.407c-.079-1.0277-.158-1.9763-.158-2.7668v-7.27273c0-.3162-.158-.55336-.395-.79051-.317-.23716-.554-.31621-.87-.31621v-.39526l3.004.07906c.237 0 1.186 0 2.846-.07906zm16.284 14.30835c0 3.162-.474 5.6126-1.501 7.3517-.712 1.1858-1.74 1.9763-2.925 2.3716-1.186.3952-2.451.6324-3.637.6324-2.529 0-4.269-1.1858-5.296-3.5573-.633-1.5811-1.028-3.8735-1.028-6.7984 0-2.5297.237-4.4269.633-5.5336.632-1.7392 1.976-3.004 3.952-3.6364 1.344-.4743 2.451-.6324 3.557-.6324 4.19-.0791 6.245 3.2411 6.245 9.8024zm-3.083 1.0276v-.5533c0-1.423-.158-2.7668-.395-3.8736-.316-1.3438-.711-2.5296-1.344-3.4782-.869-1.2648-1.818-1.8973-3.004-1.8973-.395 0-.869.0791-1.264.2372-1.344.5534-1.977 3.2411-1.977 7.9842 0 6.5613 1.502 9.8024 4.427 9.8024.474 0 .949-.0791 1.344-.2372 1.502-.3952 2.213-3.083 2.213-7.9842zm25.85 8.9328c-1.502-.079-2.371-.079-2.529-.079-.237 0-1.107 0-2.846.079v-.3952c.711 0 1.107-.2372 1.107-.8696v-12.8854c0-1.0276-.159-1.8972-.475-2.6877-.474-1.0277-1.107-1.581-1.976-1.581-.791 0-1.344.4743-1.739 1.4229-.316.7114-.475 1.502-.475 2.3715v13.3597c0 .5534.317.8696 1.028.8696v.3952c-1.581-.079-2.45-.079-2.609-.079-.237 0-1.106 0-2.766.079v-.3952c.711 0 1.106-.2372 1.106-.8696v-12.8854c0-1.0276-.158-1.8972-.395-2.6087-.395-1.0276-1.028-1.581-1.897-1.581-.87 0-1.581.4743-2.134 1.502-.475.8695-.633 1.7391-.554 2.6087.079.7114.158 1.4229.158 2.1344v10.83c0 .5534.316.8696 1.028.8696v.3952c-1.581-.079-2.451-.079-2.688-.079s-1.107 0-2.767.079v-.3952c.791 0 1.107-.2372 1.107-.8696v-15.7312c0-.3162-.079-.4743-.316-.6324l-.712-.2372c-.237-.079-.395-.1581-.395-.2371 0-.0791.158-.1581.395-.2372.633-.079 2.056-.3953 4.269-.9486 0 .2371-.079.9486-.158 2.1344.158-.3162.395-.6324.791-1.0277.79-.8696 1.897-1.2648 3.162-1.2648.869 0 1.581.2371 2.213.7114.553.3953.949.9487 1.028 1.5811.395-.6324.948-1.1858 1.581-1.5811.869-.5533 1.818-.8695 2.767-.8695 1.343 0 2.45.4743 3.32 1.502.79.9486 1.186 2.0553 1.186 3.4782v13.3597c0 .5534.316.8696 1.027.8696v.3952zm15.257-11.0672h-10.672c0 .0791.079.8696.158 2.3716.158 1.9763.475 3.6363 1.107 4.9012.87 1.8181 2.134 2.7668 3.795 2.7668.79 0 1.581-.2372 2.371-.7115.791-.4743 1.423-1.1067 1.897-1.8972l.791.3952c-1.423 2.2925-3.557 3.3992-6.561 3.3992-2.293 0-4.032-1.0276-5.297-3.0039-1.107-1.7392-1.66-3.7945-1.66-6.166 0-2.6087.632-4.9012 1.897-6.8775 1.423-2.2925 3.4-3.3992 5.929-3.3992 1.976 0 3.557.9486 4.743 2.8458.949 1.423 1.502 3.2411 1.502 5.3755zm-2.292-1.1857c0-.3162-.158-1.0277-.396-2.2135-.553-2.6087-1.66-3.9525-3.399-3.9525s-3.083 1.4229-3.952 4.2687c-.158.4743-.317 1.1067-.554 1.8973zm15.178 6.8774c0 1.5811-.633 2.9249-1.977 4.1107-1.265 1.1067-2.687 1.6601-4.268 1.6601-.87 0-1.661-.1581-2.53-.4743-.237-.0791-1.028-.4743-2.293-1.1067l-.237-3.3993h.554c.158 2.4506 1.502 3.6364 4.031 3.6364.87 0 1.66-.3162 2.451-.9486.711-.6324 1.107-1.4229 1.107-2.2925 0-1.1067-.396-2.0553-1.107-2.7668-.474-.4743-1.344-.9486-2.688-1.6601-1.502-.7114-2.53-1.4229-3.162-2.1344-.79-.8695-1.186-2.0553-1.186-3.5573 0-1.5019.633-2.8458 1.897-3.9525 1.186-1.0277 2.609-1.502 4.111-1.502s2.767.2371 3.795.6324l.316 4.0316h-.554c-.079-1.1858-.316-2.0553-.711-2.6087-.474-.6324-1.344-.8695-2.53-.8695-.869 0-1.581.3162-2.213.9486s-.949 1.3438-.949 2.2134c0 1.0277.317 1.8972.949 2.6087.474.4743 1.265 1.0277 2.371 1.581 1.819.8696 3.004 1.5811 3.479 2.0554.869.9486 1.344 2.2134 1.344 3.7944zm-114.8621-22.21341c-.079.23716-1.7391 1.10672-1.7391 1.10672-3.8735 1.42293-1.6601 6.56129-1.6601 6.56129 6.7194-2.21346 3.4783-7.90516 3.3992-7.66801z"/></g></svg>

<svg width="200" height="32" viewBox="0 0 200 32" fill="none" xmlns="http://www.w3.org/2000/svg">
<g clip-path="url(#clip0)">
<path opacity="0.75" d="M17.5494 7.11462C14.3083 3.47826 10.4348 1.89723 10.5929 2.29249C10.83 3.2411 7.82607 9.01185 7.82607 9.01185C-0.15812 20.3953 14.9407 30.6719 16.2055 31.5415C15.4941 30.0395 8.37943 14.7036 17.5494 7.11462Z" fill="#1F304C"/>
<path opacity="0.5" d="M16.2055 31.6205C16.2055 31.6205 6.16601 11.5415 21.0277 4.90116C21.0277 4.90116 27.2727 1.02764 27.5889 -2.86736e-05C27.9842 -1.0277 42.6087 20.8695 16.2055 31.6205Z" fill="#1F304C"/>
<path d="M5.92889 12.5692C2.60874 11.6996 -0.237114 12.0158 4.0195e-05 12.1739C0.5534 12.8063 0.711503 18.2609 0.711503 18.2609C-0.711422 30.5138 16.2056 31.6206 16.2056 31.6206V31.5415C15.1779 30.9091 2.84589 22.5296 5.92889 12.5692ZM47.668 24.8221C47.668 26.4822 46.9566 27.9051 45.6127 29.0119C44.3479 30.1186 42.8459 30.6719 41.1858 30.6719C40.3162 30.6719 39.4467 30.4348 38.4981 30.0395C37.7076 29.6443 36.838 29.17 36.0475 28.7747L35.8103 25.3755H36.3637C36.4427 26.6403 36.917 27.668 37.7866 28.3794C38.6562 29.0909 39.6838 29.4862 40.9487 29.4862C42.0554 29.4862 42.9249 29.0119 43.5574 28.1423C44.1107 27.3518 44.4269 26.4032 44.4269 25.2174C44.4269 23.1621 43.6364 21.4229 42.1344 19.8419C40.7115 18.6561 39.3676 17.3913 37.9447 16.2055C36.4427 14.7036 35.6522 13.0435 35.6522 11.0672C35.6522 9.40711 36.3637 8.06324 37.7076 6.87747C39.0514 5.8498 40.4743 5.29644 42.1344 5.29644C43.8736 5.29644 45.1384 5.6917 46.087 6.56126L46.4032 10.5929H45.8498C45.7708 9.09091 45.5336 8.14229 45.2174 7.58893C44.7431 6.79842 43.8736 6.40316 42.4506 6.40316C41.3439 6.40316 40.4744 6.87747 39.8419 7.74703C39.2095 8.53755 38.9724 9.48616 38.9724 10.6719C38.9724 12.4111 39.7629 14.0711 41.2649 15.4941C42.6878 16.6798 44.1107 17.9447 45.5336 19.1304C46.8775 20.8696 47.668 22.7668 47.668 24.8221ZM63.1621 19.2885H52.4902C52.4902 19.3676 52.5692 20.1581 52.6483 21.6601C52.8064 23.6364 53.1226 25.2964 53.755 26.5613C54.6245 28.3794 55.8894 29.3281 57.5495 29.3281C58.34 29.3281 59.1305 29.0909 59.921 28.6166C60.7115 28.1423 61.3439 27.5099 61.8182 26.7194L62.6087 27.1146C61.1858 29.4071 59.0514 30.5138 56.0475 30.5138C53.755 30.5138 52.0159 29.4862 50.751 27.5099C49.6443 25.7707 49.091 23.7154 49.091 21.3439C49.091 18.7352 49.7234 16.4427 50.9882 14.4664C52.4111 12.1739 54.3874 11.0672 56.917 11.0672C58.8933 11.0672 60.4744 12.0158 61.6601 13.913C62.6087 15.336 63.1621 17.2332 63.1621 19.2885ZM60.9487 18.1028C60.9487 17.7866 60.7906 17.0751 60.5534 15.8893C60 13.2806 58.8933 11.9368 57.1542 11.9368C55.4151 11.9368 54.0712 13.3597 53.2016 16.2055C53.0435 16.6798 52.8854 17.3123 52.6483 18.1028H60.9487ZM78.8933 30.3557C77.3913 30.2767 76.5218 30.2767 76.3637 30.2767C76.1265 30.2767 75.257 30.2767 73.5178 30.3557V29.9605C74.3083 29.9605 74.6245 29.7233 74.6245 29.0909V16.2846C74.6245 15.1779 74.3874 14.3083 73.9131 13.5178C73.3597 12.6482 72.5692 12.1739 71.5415 12.1739C70.5929 12.1739 69.8024 12.5692 69.17 13.2806C68.5376 14.0711 68.3004 14.8617 68.3795 15.8103C68.4585 16.6008 68.5376 17.3123 68.5376 18.0237V29.17C68.5376 29.7233 68.8538 30.0395 69.5653 30.0395V30.4348C67.9052 30.3557 67.0356 30.3557 66.8775 30.3557C66.6404 30.3557 65.7708 30.3557 64.1898 30.4348V30.0395C64.9012 30.0395 65.2965 29.8024 65.2965 29.17V13.3597C65.2965 13.0435 65.2174 12.8854 65.0593 12.7273C64.9803 12.7273 64.8222 12.6482 64.4269 12.4901C64.1898 12.4111 64.0317 12.332 64.0317 12.253C64.0317 12.1739 64.1898 12.0949 64.4269 12.0158C65.0593 11.9368 66.4032 11.6206 68.6166 11.0672C68.6166 11.6996 68.5376 12.5692 68.4585 13.7549C68.6166 13.1225 69.0119 12.4901 69.6443 12.0158C70.5139 11.3043 71.6206 10.9881 72.8854 10.9881C74.2293 10.9881 75.4151 11.3834 76.3637 12.1739C77.3913 13.1225 77.9447 14.3083 77.9447 15.8103V29.17C77.9447 29.7233 78.2609 30.0395 78.9724 30.0395L78.8933 30.3557ZM85.2965 30.3557C83.6364 30.2767 82.7668 30.2767 82.5297 30.2767C82.3716 30.2767 81.502 30.2767 79.8419 30.3557V29.9605C80.6325 29.9605 80.9487 29.6443 80.9487 29.0909V13.3597C80.9487 13.0435 80.8696 12.8063 80.7115 12.7273C80.6325 12.7273 80.3953 12.6482 80 12.4901C79.7629 12.4111 79.6048 12.332 79.6048 12.253C79.6048 12.1739 79.7629 12.0949 80 12.0158C80.7115 11.9368 82.0554 11.6206 84.1898 11.0672V29.0909C84.1898 29.6443 84.506 29.9605 85.2174 29.9605L85.2965 30.3557ZM101.423 20.4743C101.423 23.6364 100.949 26.087 99.921 27.8261C99.2095 29.0119 98.1819 29.8024 96.9961 30.1976C95.8103 30.5929 94.5455 30.83 93.3597 30.83C90.8301 30.83 89.091 29.6443 88.0633 27.2727C87.4309 25.6917 87.0356 23.3992 87.0356 20.4743C87.0356 17.9447 87.2728 16.0474 87.668 14.9407C88.3004 13.2016 89.6443 11.9368 91.6206 11.3043C92.9645 10.83 94.0712 10.6719 95.1779 10.6719C99.3676 10.5138 101.423 13.834 101.423 20.4743ZM98.34 21.4229V20.8696C98.34 19.4466 98.1819 18.1028 97.9447 16.996C97.6285 15.6522 97.2332 14.4664 96.6008 13.5178C95.7313 12.253 94.7827 11.6206 93.5969 11.6206C93.2016 11.6206 92.7273 11.6996 92.3321 11.8577C90.9882 12.4111 90.3558 15.0988 90.3558 19.8419C90.3558 26.4032 91.8578 29.6443 94.7827 29.6443C95.257 29.6443 95.7313 29.5652 96.1265 29.4071C97.6285 29.0119 98.34 26.3241 98.34 21.4229ZM114.387 12.8854C114.387 13.2016 114.308 13.4387 114.071 13.6759C113.834 13.913 113.597 13.9921 113.36 13.9921C112.885 13.9921 112.569 13.6759 112.332 13.1225C112.174 12.8063 112.095 12.5692 112.016 12.4901C111.858 12.253 111.7 12.1739 111.462 12.1739C110.277 12.0949 109.17 12.9644 108.221 14.7826C107.273 16.4427 106.878 17.8656 107.036 19.0514C107.115 19.7628 107.194 20.4743 107.194 21.1858V29.17C107.194 29.7233 107.51 30.0395 108.221 30.0395V30.4348C106.561 30.3557 105.692 30.3557 105.455 30.3557C105.217 30.3557 104.348 30.3557 102.767 30.4348V30.0395C103.478 30.0395 103.874 29.8024 103.874 29.17V13.3597C103.874 13.0435 103.795 12.8063 103.636 12.7273L102.925 12.4901C102.688 12.4111 102.609 12.332 102.609 12.253C102.609 12.1739 102.767 12.0949 103.004 12.0158C103.636 11.9368 105.059 11.6206 107.194 11.0672V13.3597C107.194 13.913 107.115 14.6245 107.036 15.4941C108.3 12.332 109.881 10.751 111.779 10.751C112.411 10.751 112.964 10.9881 113.597 11.3834C114.15 11.8577 114.387 12.332 114.387 12.8854ZM132.095 5.92885C131.779 5.92885 131.462 6.0079 131.146 6.24506C130.83 6.48221 130.672 6.71937 130.672 7.03557V28.6957C130.672 29.0119 130.83 29.249 131.067 29.4862C131.383 29.7233 131.621 29.8024 131.937 29.8024V30.1976C130.198 30.1186 129.249 30.1186 129.012 30.1186C128.775 30.1186 127.826 30.1186 126.008 30.1976V29.8024C126.324 29.8024 126.64 29.7233 126.957 29.4862C127.273 29.249 127.431 29.0119 127.431 28.6957V20.4743C127.431 19.8419 127.51 18.8933 127.589 17.7866H118.182C118.261 18.8142 118.34 19.6838 118.34 20.4743V28.6957C118.34 29.0119 118.498 29.249 118.735 29.4862C119.051 29.7233 119.289 29.8024 119.605 29.8024V30.1976L116.759 30.1186C116.522 30.1186 115.573 30.1186 113.755 30.1976V29.8024C114.071 29.8024 114.387 29.7233 114.704 29.4862C115.02 29.249 115.178 29.0119 115.178 28.6957V7.03557C115.178 6.71937 115.02 6.48221 114.783 6.24506C114.466 6.0079 114.229 5.92885 113.913 5.92885V5.53359L116.838 5.61265C117.075 5.61265 118.024 5.61265 119.763 5.53359V5.92885C119.447 5.92885 119.13 6.0079 118.814 6.24506C118.498 6.48221 118.34 6.71937 118.34 7.03557V14.5455C118.34 15.2569 118.261 16.1265 118.182 17.0751H127.589C127.51 16.0474 127.431 15.0988 127.431 14.3083V7.03557C127.431 6.71937 127.273 6.48221 127.036 6.24506C126.719 6.0079 126.482 5.92885 126.166 5.92885V5.53359L129.17 5.61265C129.407 5.61265 130.356 5.61265 132.016 5.53359L132.095 5.92885ZM148.379 20.2372C148.379 23.3992 147.905 25.8498 146.878 27.5889C146.166 28.7747 145.138 29.5652 143.953 29.9605C142.767 30.3557 141.502 30.5929 140.316 30.5929C137.787 30.5929 136.047 29.4071 135.02 27.0356C134.387 25.4545 133.992 23.1621 133.992 20.2372C133.992 17.7075 134.229 15.8103 134.625 14.7036C135.257 12.9644 136.601 11.6996 138.577 11.0672C139.921 10.5929 141.028 10.4348 142.134 10.4348C146.324 10.3557 148.379 13.6759 148.379 20.2372ZM145.296 21.2648V20.7115C145.296 19.2885 145.138 17.9447 144.901 16.8379C144.585 15.4941 144.19 14.3083 143.557 13.3597C142.688 12.0949 141.739 11.4624 140.553 11.4624C140.158 11.4624 139.684 11.5415 139.289 11.6996C137.945 12.253 137.312 14.9407 137.312 19.6838C137.312 26.2451 138.814 29.4862 141.739 29.4862C142.213 29.4862 142.688 29.4071 143.083 29.249C144.585 28.8538 145.296 26.166 145.296 21.2648ZM171.146 30.1976C169.644 30.1186 168.775 30.1186 168.617 30.1186C168.38 30.1186 167.51 30.1186 165.771 30.1976V29.8024C166.482 29.8024 166.878 29.5652 166.878 28.9328V16.0474C166.878 15.0198 166.719 14.1502 166.403 13.3597C165.929 12.332 165.296 11.7787 164.427 11.7787C163.636 11.7787 163.083 12.253 162.688 13.2016C162.372 13.913 162.213 14.7036 162.213 15.5731V28.9328C162.213 29.4862 162.53 29.8024 163.241 29.8024V30.1976C161.66 30.1186 160.791 30.1186 160.632 30.1186C160.395 30.1186 159.526 30.1186 157.866 30.1976V29.8024C158.577 29.8024 158.972 29.5652 158.972 28.9328V16.0474C158.972 15.0198 158.814 14.1502 158.577 13.4387C158.182 12.4111 157.549 11.8577 156.68 11.8577C155.81 11.8577 155.099 12.332 154.546 13.3597C154.071 14.2292 153.913 15.0988 153.992 15.9684C154.071 16.6798 154.15 17.3913 154.15 18.1028V28.9328C154.15 29.4862 154.466 29.8024 155.178 29.8024V30.1976C153.597 30.1186 152.727 30.1186 152.49 30.1186C152.253 30.1186 151.383 30.1186 149.723 30.1976V29.8024C150.514 29.8024 150.83 29.5652 150.83 28.9328V13.2016C150.83 12.8854 150.751 12.7273 150.514 12.5692L149.802 12.332C149.565 12.253 149.407 12.1739 149.407 12.0949C149.407 12.0158 149.565 11.9368 149.802 11.8577C150.435 11.7787 151.858 11.4624 154.071 10.9091C154.071 11.1462 153.992 11.8577 153.913 13.0435C154.071 12.7273 154.308 12.4111 154.704 12.0158C155.494 11.1462 156.601 10.751 157.866 10.751C158.735 10.751 159.447 10.9881 160.079 11.4624C160.632 11.8577 161.028 12.4111 161.107 13.0435C161.502 12.4111 162.055 11.8577 162.688 11.4624C163.557 10.9091 164.506 10.5929 165.455 10.5929C166.798 10.5929 167.905 11.0672 168.775 12.0949C169.565 13.0435 169.961 14.1502 169.961 15.5731V28.9328C169.961 29.4862 170.277 29.8024 170.988 29.8024V30.1976H171.146ZM186.403 19.1304H175.731C175.731 19.2095 175.81 20 175.889 21.502C176.047 23.4783 176.364 25.1383 176.996 26.4032C177.866 28.2213 179.13 29.17 180.791 29.17C181.581 29.17 182.372 28.9328 183.162 28.4585C183.953 27.9842 184.585 27.3518 185.059 26.5613L185.85 26.9565C184.427 29.249 182.293 30.3557 179.289 30.3557C176.996 30.3557 175.257 29.3281 173.992 27.3518C172.885 25.6126 172.332 23.5573 172.332 21.1858C172.332 18.5771 172.964 16.2846 174.229 14.3083C175.652 12.0158 177.629 10.9091 180.158 10.9091C182.134 10.9091 183.715 11.8577 184.901 13.7549C185.85 15.1779 186.403 16.996 186.403 19.1304ZM184.111 17.9447C184.111 17.6285 183.953 16.917 183.715 15.7312C183.162 13.1225 182.055 11.7787 180.316 11.7787C178.577 11.7787 177.233 13.2016 176.364 16.0474C176.206 16.5217 176.047 17.1541 175.81 17.9447H184.111ZM199.289 24.8221C199.289 26.4032 198.656 27.747 197.312 28.9328C196.047 30.0395 194.625 30.5929 193.044 30.5929C192.174 30.5929 191.383 30.4348 190.514 30.1186C190.277 30.0395 189.486 29.6443 188.221 29.0119L187.984 25.6126H188.538C188.696 28.0632 190.04 29.249 192.569 29.249C193.439 29.249 194.229 28.9328 195.02 28.3004C195.731 27.668 196.127 26.8775 196.127 26.0079C196.127 24.9012 195.731 23.9526 195.02 23.2411C194.546 22.7668 193.676 22.2925 192.332 21.581C190.83 20.8696 189.802 20.1581 189.17 19.4466C188.38 18.5771 187.984 17.3913 187.984 15.8893C187.984 14.3874 188.617 13.0435 189.881 11.9368C191.067 10.9091 192.49 10.4348 193.992 10.4348C195.494 10.4348 196.759 10.6719 197.787 11.0672L198.103 15.0988H197.549C197.47 13.913 197.233 13.0435 196.838 12.4901C196.364 11.8577 195.494 11.6206 194.308 11.6206C193.439 11.6206 192.727 11.9368 192.095 12.5692C191.463 13.2016 191.146 13.913 191.146 14.7826C191.146 15.8103 191.463 16.6798 192.095 17.3913C192.569 17.8656 193.36 18.419 194.466 18.9723C196.285 19.8419 197.47 20.5534 197.945 21.0277C198.814 21.9763 199.289 23.2411 199.289 24.8221ZM84.4269 2.60869C84.3479 2.84585 82.6878 3.71541 82.6878 3.71541C78.8143 5.13834 81.0277 10.2767 81.0277 10.2767C87.7471 8.06324 84.506 2.37154 84.4269 2.60869Z" fill="#1F304C"/>
</g>
<defs>
<clipPath id="clip0">
<rect width="200" height="31.6206" fill="white"/>
</clipPath>
</defs>
</svg>
